resources/icons/scopy-light/icons/power_supply.svg

<?xml version="1.0" encoding="UTF-8"?>
<svg width="16px" height="20px" viewBox="0 0 16 20" version="1.1" xmlns="http://www.w3.org/2000/svg" xmlns:xlink="http://www.w3.org/1999/xlink">
    <title>powerD</title>
    <g id="powerD" stroke="none" stroke-width="1" fill="none" fill-rule="evenodd">
        <path d="M16,10 C15.9963467,5.97114267 12.9972598,2.57360572 9,2.07 L9,0 L7,0 L7,2.07 C3.00158352,2.57096744 0.00156127139,5.97032225 0.00156127139,10 C0.00156127139,14.0296777 3.00158352,17.4290326 7,17.93 L7,20 L9,20 L9,17.93 C12.9972598,17.4263943 15.9963467,14.0288573 16,10 L16,10 Z M8,16 C4.6862915,16 2,13.3137085 2,10 C2,6.6862915 4.6862915,4 8,4 C11.3137085,4 14,6.6862915 14,10 C14,13.3137085 11.3137085,16 8,16 L8,16 Z M9,6 L7,6 L7,7 L6,7 L6,9 L7,9 L7,10 L9,10 L9,9 L10,9 L10,7 L9,7 L9,6 L9,6 Z M6,14 L10,14 L10,12 L6,12 L6,14 L6,14 Z" id="power" fill="#000000"></path>
    </g>
</svg>

<?xml version="1.0" encoding="UTF-8"?>
<svg width="16px" height="20px" version="1.1" viewBox="0 0 16 20" xmlns="http://www.w3.org/2000/svg">
 <g fill="#000" fill-opacity=".6" fill-rule="evenodd">
  <path d="m16 10c-0.0036533-4.0289-3.0027-7.4264-7-7.93v-2.07h-2v2.07c-3.9984 0.50097-6.9984 3.9003-6.9984 7.93s3 7.429 6.9984 7.93v2.07h2v-2.07c3.9973-0.50361 6.9963-3.9011 7-7.93zm-8 6c-3.3137 0-6-2.6863-6-6s2.6863-6 6-6 6 2.6863 6 6-2.6863 6-6 6zm1-10h-2v1h-1v2h1v1h2v-1h1v-2h-1v-1zm-3 8h4v-2h-4v2z"/>
 </g>
</svg>
